X:1
T:Glenloe
M:C
L:1/8
R:Reel
S:Joyce - Old Irish Folk Music and Songs  (1909)
Z:AK/Fiddler's Companion
K:Ddor
(3A/B/c/|edAG F2 DE|F2 cA dBcA|dcAG F2 Dc|1 dfec dfec:|2 dfec d3||
e|fede eagf|ecgc acec|fede fage|fdec d3e|
fede fagf|ecgc acgc| fagf (3efg fe|(3fed (3edc defe||

